svg/300/sharp/3g_mobiledata_badge-fill.svg

<svg xmlns="http://www.w3.org/2000/svg" width="48" height="48" viewBox="0 -960 960 960"><path d="M497.308-290.001h252.691v-214.306H640v45.383h65.231v123.54H542.692v-289.232h207.307v-45.383H497.308v379.998Zm-287.307 0h210.46v-167.307l-22.692-22.077 22.692-23.307v-167.307h-210.46v45.383h165.077v121.924H211.616v45.384h163.462v121.924H210.001v45.383Zm-150 150v-679.998H900v679.998H60.001Z"/></svg>

<svg xmlns="http://www.w3.org/2000/svg" width="48" height="48" viewBox="0 -960 960 960"><path d="M497.31-290H750v-214.31H640v45.39h65.23v123.54H542.69v-289.24H750V-670H497.31v380ZM210-290h210.46v-167.31l-22.69-22.07 22.69-23.31V-670H210v45.38h165.08v121.93H211.62v45.38h163.46v121.93H210V-290ZM60-140v-680h840v680H60Z"/></svg>
